X:1
T:Title
%%score { ( 1 3 ) | ( 2 4 ) }
L:1/8
M:4/4
K:Eb
V:1 treble nm="Grand Piano"
V:3 treble 
V:2 bass 
V:4 bass 
V:1
 z4 z2[Q:1/4=100] G>_G | G2 G2 [Ac]3 [GB] | [GB]2 [Ge]4 AG | [DF]4 z4 | A4 z4 | G2 G2 [Ac]3 [GB] | %6
 [GB]2 [Ge]4 AG | [DF]4 z4 |[M:3/4] [G,E]6 |[M:1/4] B>e |[M:4/4] [Ad]4 z4 | [Ec]4 B2 z2 | %12
 F3 F FcB=A | [DB]6[K:bass] B,,>B, | cc c2 c2[K:bass] B,,>A, | BB B2 B2 G>G | G2 [CEG]2 C-[CF]ED | %17
[M:3/4] E6 |] %18
V:2
 z4 z2 [E,B,E]>[E,=A,E] | [E,B,E]2 [E,B,E]2 [E,E]3 [E,E] | [E,E]2 [E,B,]4[K:treble] FE | %3
 B,,B,,B,,C, [D,B,]2 [E,B,E]2 | E6 z2 | [E,B,E]2 [E,B,E]2 [E,E]3 [E,E] | %6
 [E,E]2 [E,B,]4[K:treble] FE | B,,B,,B,,[B,,B,] z F z A, |[M:3/4] E,6 |[M:1/4][K:treble] G>G | %10
[M:4/4][K:bass] [B,,B,]B,,B,,B,, [B,,B,][B,,B,][B,,B,][B,,A,] | [E,A,]E,E,E, E-[E,E][E,CE][E,B,E] | %12
 [F,B,D]3 [F,B,D] [B,D][=A,E][B,D][CE] | [B,,B,]6 z2 | [EA][EA] [EA]2 [A,EA]2 z2 | %15
 [B,E][B,E] [B,E]2 [G,B,E]2 [E,B,E]>[E,B,E] | [E,B,E]2 C,2 z A,G,F, |[M:3/4] [E,G,B,]6 |] %18
V:3
 x8 | x8 | x8 | B,B,B,[=A,DF] [EF]F G2 | z2 CC G2 G>_G | x8 | x8 | B,B,B,[DF] [DF]A[B,EG][DF] | %8
[M:3/4] x6 |[M:1/4] x2 |[M:4/4] z B,B,B, [Ac]2 [FA][Fd] | z A,A,A, z G,AG | x8 | x6[K:bass] x2 | %14
 x6[K:bass] x2 | x8 | z4 .[B,G]2 z2 |[M:3/4] x6 |] %18
V:4
 x8 | x8 | x6[K:treble] x2 | x8 | [E,C]2 E,E, [E,B,]2 [E,B,E]>[E,=A,E] | x8 | x6[K:treble] x2 | %7
 z4 [B,,B,]2 B,,2 |[M:3/4] x6 |[M:1/4][K:treble] x2 |[M:4/4][K:bass] x8 | z4 .[E,G,]2 z2 | %12
 z4 F,2 F,2 | x8 | A,4 z4 | G,4 z4 | z4 A,,2 [B,,B,]2 |[M:3/4] x6 |] %18

